mobile/24/svg/help-circle-fill-24.svg

<svg width="24" height="24" viewBox="0 0 24 24" fill="none" xmlns="http://www.w3.org/2000/svg">
<path fill-rule="evenodd" clip-rule="evenodd" d="M2 12C2 17.51 6.49 22 12 22C17.51 22 22 17.51 22 12C22 6.49 17.51 2 12 2C6.49 2 2 6.49 2 12ZM11.25 14.25V13.27C11.25 12.31 11.81 11.45 12.72 11.03C13.21 10.8 13.53 10.3 13.53 9.75998C13.53 8.98999 12.9 8.35999 12.13 8.35999C11.36 8.35999 10.73 8.98999 10.73 9.75998H8.97998C8.97998 8.01999 10.39 6.60999 12.13 6.60999C13.87 6.60999 15.28 8.02999 15.28 9.75998C15.28 10.98 14.57 12.1 13.46 12.62C13.18 12.75 13 13 13 13.27V14.25H11.25ZM13 16H11.25V17.75H13V16Z" fill="black"/>
</svg>

<svg width="24" height="24" fill="none" xmlns="http://www.w3.org/2000/svg"><path fill-rule="evenodd" clip-rule="evenodd" d="M2 12c0 5.51 4.49 10 10 10s10-4.49 10-10S17.51 2 12 2 2 6.49 2 12zm9.25 2.25v-.98c0-.96.56-1.82 1.47-2.24.49-.23.81-.73.81-1.27 0-.77-.63-1.4-1.4-1.4-.77 0-1.4.63-1.4 1.4H8.98a3.15 3.15 0 1 1 6.3 0c0 1.22-.71 2.34-1.82 2.86-.28.13-.46.38-.46.65v.98h-1.75zM13 16h-1.75v1.75H13V16z" fill="#000"/></svg>
